svgs/yetcalc.svg

<svg width="192" height="192" viewBox="0 0 192 192" fill="none" xmlns="http://www.w3.org/2000/svg">
<path d="M22 53.614H80.303" stroke="black" stroke-width="12" stroke-linecap="round" stroke-linejoin="round"/>
<path d="M111 119H169.303M111 145H169.303" stroke="black" stroke-width="12" stroke-linecap="round" stroke-linejoin="round"/>
<circle cx="51" cy="38" r="4" stroke="black" stroke-width="6"/>
<circle cx="51" cy="69" r="4" stroke="black" stroke-width="6"/>
<path d="M138.069 63.5857L139.19 57.473M139.19 57.473L140.31 49.7302C141.057 46.47 129.104 46.47 126.862 56.2504C124.434 66.8458 136.575 62.7707 139.19 57.473Z" stroke="black" stroke-width="8" stroke-linecap="round" stroke-linejoin="round"/>
<path d="M122.808 46.9653C104.13 37.185 98.1528 70.6013 119.819 63.266" stroke="black" stroke-width="8" stroke-linecap="round" stroke-linejoin="round"/>
<path d="M172 52.2339C159.676 45.7808 155.733 67.829 170.028 62.9891" stroke="black" stroke-width="8" stroke-linecap="round" stroke-linejoin="round"/>
<path d="M152.692 38L147.552 58.5607C146.827 61.459 149.462 64.3329 152.432 64.0112C153.252 63.9224 153.915 63.7956 154.5 63.5" stroke="black" stroke-width="8" stroke-linecap="round" stroke-linejoin="round"/>
<path d="M48.6554 135.171C52.2578 135.171 57.0446 135.171 60.3879 135.171C62.597 135.171 64.3857 133.38 64.3857 131.171V129.082C64.3857 126.6 62.1222 124.613 59.649 124.402C57.452 124.215 55.4289 124.09 51.97 126.041C51.2785 126.431 50.6952 126.991 50.3171 127.689C49.5114 129.176 48.2502 132.088 48.6554 135.171ZM48.6554 135.171C48.6554 136.994 49.0478 138.151 49.3772 138.802C49.62 139.281 49.9337 139.73 50.216 140.188C53.3711 145.298 60.5052 145.18 64.9683 142.39" stroke="black" stroke-width="8" stroke-linecap="round" stroke-linejoin="round"/>
<path d="M81.3333 119L80.1212 126.677M85.3333 142.03L81.8615 143.03C79.7519 143.637 77.7259 141.847 78.0682 139.679L80.1212 126.677M80.1212 126.677H74.6667M80.1212 126.677H86" stroke="black" stroke-width="8" stroke-linecap="round" stroke-linejoin="round"/>
<path d="M40.6667 124.333L31.4234 142.333M20 147.667L23.6778 148.28C26.2525 148.709 28.8093 147.424 30.0016 145.102L31.4234 142.333M31.4234 142.333L27.3333 124.333" stroke="black" stroke-width="8" stroke-linecap="round" stroke-linejoin="round"/>
</svg>

<svg width="192" height="192" viewBox="0 0 192 192" fill="none" xmlns="http://www.w3.org/2000/svg"><path d="M22 53.614h58.303M111 119h58.303M111 145h58.303" stroke="#000" stroke-width="12" stroke-linecap="round" stroke-linejoin="round"/><circle cx="51" cy="38" r="4" stroke="#000" stroke-width="6"/><circle cx="51" cy="69" r="4" stroke="#000" stroke-width="6"/><path d="m138.069 63.586 1.121-6.113m0 0 1.12-7.743c.747-3.26-11.206-3.26-13.448 6.52-2.428 10.596 9.713 6.52 12.328 1.223ZM122.808 46.965c-18.678-9.78-24.655 23.636-2.989 16.301M172 52.234c-12.324-6.453-16.267 15.595-1.972 10.755M152.692 38l-5.14 20.56c-.725 2.899 1.91 5.773 4.88 5.451.82-.089 1.483-.215 2.068-.511M48.655 135.171h11.733a3.998 3.998 0 0 0 3.998-4v-2.089c0-2.482-2.264-4.469-4.737-4.68-2.197-.187-4.22-.312-7.679 1.639-.691.39-1.275.95-1.653 1.648-.806 1.487-2.067 4.399-1.662 7.482Zm0 0c0 1.823.393 2.98.722 3.631.243.479.557.928.839 1.386 3.155 5.11 10.29 4.992 14.752 2.202M81.333 119l-1.212 7.677m5.212 15.353-3.471 1c-2.11.607-4.136-1.183-3.794-3.351l2.053-13.002m0 0h-5.454m5.454 0H86M40.667 124.333l-9.244 18M20 147.667l3.678.613a6 6 0 0 0 6.324-3.178l1.421-2.769m0 0-4.09-18" stroke="#000" stroke-width="8" stroke-linecap="round" stroke-linejoin="round"/></svg>
